dist/img/svg/product_i_5.svg

<svg width="50" height="50" viewBox="0 0 50 50" fill="none" xmlns="http://www.w3.org/2000/svg">
<path d="M8.33301 10.8333V30.7372C8.33301 30.7372 8.33301 30.7372 8.33301 30.7409C8.33301 39.9349 16.0445 47.4999 25.4163 47.4999C34.7882 47.4999 42.4997 39.9349 42.4997 30.7409C42.4997 21.547 34.7882 13.9819 25.4163 13.9819C20.2626 13.9819 15.3772 16.2691 12.137 20.2002M11.7343 30.7409V10.8333M39.0945 10.8333V20.8247M42.4958 10.8333V30.7447M39.0945 30.7447C39.0945 38.1555 32.9706 44.1669 25.4125 44.1669C17.8544 44.1669 11.7305 38.1593 11.7305 30.7447C11.7305 23.3301 17.8544 17.3224 25.4125 17.3224C32.9706 17.3224 39.0945 23.3301 39.0945 30.7447Z" stroke="#6C757D" stroke-width="2" stroke-linecap="round" stroke-linejoin="round"/>
<path d="M11.6853 6.43136L11.2961 3.33325H8.70241L8.27078 6.43136M35.5948 30.8214C35.5948 36.3494 31.0433 40.8333 25.4321 40.8333C19.8208 40.8333 15.2694 36.3494 15.2694 30.8214C15.2694 25.2934 19.8208 20.8095 25.4321 20.8095C31.0433 20.8095 35.5948 25.2934 35.5948 30.8214ZM12.4561 6.43136H7.5V10.7254H12.4561V6.43136ZM43.3333 7.8741H38.4774V10.7254H43.3333V7.8741Z" stroke="#6B3D90" stroke-width="2" stroke-linecap="round" stroke-linejoin="round"/>
</svg>

<svg width="50" height="50" viewBox="0 0 50 50" fill="none" xmlns="http://www.w3.org/2000/svg"><path d="M8.333 10.833v19.908c0 9.194 7.711 16.759 17.083 16.759 9.372 0 17.084-7.565 17.084-16.76 0-9.193-7.712-16.758-17.084-16.758-5.153 0-10.039 2.287-13.279 6.218m-.403 10.54V10.834m27.36 0v9.992m3.402-9.992v19.912m-3.402 0c0 7.41-6.123 13.422-13.681 13.422-7.559 0-13.683-6.008-13.683-13.422 0-7.415 6.124-13.423 13.683-13.423 7.558 0 13.681 6.008 13.681 13.423z" stroke="#6C757D" stroke-width="2" stroke-linecap="round" stroke-linejoin="round"/><path d="M11.685 6.431l-.389-3.098H8.702l-.431 3.098m27.324 24.39c0 5.528-4.552 10.012-10.163 10.012-5.611 0-10.163-4.484-10.163-10.012 0-5.528 4.552-10.012 10.163-10.012 5.611 0 10.163 4.484 10.163 10.012zM12.456 6.431H7.5v4.294h4.956V6.431zm30.877 1.443h-4.856v2.851h4.856v-2.85z" stroke="#6B3D90" stroke-width="2" stroke-linecap="round" stroke-linejoin="round"/></svg>
